!!!OTL: UND DIE WURZBURGER GLOECKLI
!!!ARE: Europa, Mitteleuropa, Deutschland, Bayern
!!!SCT: E1052
!!!YEM: Copyright 1995, estate of Helmut Schaffrath.
**kern
*ICvox
*Ivox
*M3/4
*k[f#c#]
*D:
{8F#
8G
=1
4A
4F#
4F#
=2
4F#
4E}
{8E
8F#
=3
4.G
8F#
4E
=4
4G
4F#}
{8F#
8G
=5
4A
4F#
4F#
=6
4F#
4E}
{8E
8B
=7
4B
4A
4C#
=8
2D
8r}
{8A
=9
8A
8g
4.e
8A
=10
8A
8f#
4.d}
{8A
=11
8A
8c#
8e
8A
8c#
8e
=12
8d
8A
8d
8f#
4a}
=13
{8A
8g
4.e
8A
=14
8A
8f#
4.d}
{8A
=15
8A
8B
8c#
8d
8.f#
16e
=16
4d
4r}
==
!!!AGN: Tanz - Lied; Liebe
!!!ONB: ESAC (Essen Associative Code) Database: ERK3
!!!AMT: simple triple
!!!AIN: vox
!!!EED: Helmut Schaffrath
!!!EEV: 1.0
*-
